X: 1
T: Goose in the Bog
M: 6/8
L: 1/8
K: G
|:C'EE GEE|C'EE GAB|C'EE GED|EAG A2B:|
|:C'D'E' G'E'D'|E'A'A' G'E'D'|C'D'E' G'E'D'|E'A'A' A'2B:|